X: 431
T: Fangbeihou deng meimei shi kelian
%%abc-version 2.0
%%abcx-abcm2ps-target-version 5.9.1 (29 Sep 2008)
%%abc-creator hum2abc beta
%%abcx-conversion-date 2013/10/02 07:52:30
%%abc-edited-by Helmut Schaffrath
%%humdrum-veritas 643188152
%%humdrum-veritas-data 996367768
%%continueall 1
%%barnumbers 0
L: 1/8
M: 2/4
K: D
de2A/ A/ [I:setbarnb 1]| 
^G AE2 | 
d B A ^G | 
E4 | 
de2A/ A/ | 
^G AE2 | 
B A E D | 
A,4 |]  



